!!!OTL: ES SPIELT' EIN GRAF MIT EINER MAID
!!!ARE: Europa, Mitteleuropa, Deutschland
!!!SCT: Z0054
!!!YEM: Copyright 1995, estate of Helmut Schaffrath.
**kern
*ICvox
*Ivox
*M4/4
*k[b-e-]
*g:
{2dd
=1
2dd
2cc
=2
2dd
2ee-
=3
2.ffn
4gg
=4
2.dd}
{4ffn
=5
2ee-
2dd
=6
2cc
2b-
=7
1cc
=8
2.ee-}
{4cc
=9
2cc
4cc
4cc
=10
2dd
2cc
=11
2.b-
4a
=12
2.g}
{4a
=13
2b-
2cc
=14
2dd
2b-
=15
1a
=16
2g}
==
!!!AGN: Sagen - Lied, Romanze,Tod
!!!ONB: ESAC (Essen Associative Code) Database: ZUCCAL
!!!AMT: simple quadruple
!!!AIN: vox
!!!EED: Helmut Schaffrath
!!!EEV: 1.0
*-
